X:411
T:Steeltoed Ballerina
M:C|
C:© Paul Gitlitz 2018
K:A
"A"A,cBc  ecBA|"C#m"CcBc edcB|"D"Ddcd edcB|"E"Egfe dcBc|!
"A"A,cBc  ecBA|"F#m"Ccde fedc|"Bm"DfdA FBdf|"E"Ecde fgab:|!
"A"a2E2C2A,2| "E"g2E2D2B,2|"D"f2F2 D2A,2| "E"e2E2 B,2G,2|!
"A"a2E2C2A,2| "E"g2E2D2B,2|"D"f2 F2 D2A,2|"E"e2 G,2B,2E2|!
"A"a2E2C2A,2| "E"g2E2D2B,2|"D"f2F2 D2A,2| "A"e2E2 C2A,2|!
"D"d2F2D2A,2| "A"c2E2C2A,2|"E"B2 G,2B,2E2|"A"[A,8A8]|]
